!!!OTL: Der Vorwirt Es wollt' ein Herr ausreiten
!!!ARE: Europa, Mitteleuropa, Deutschland / France, Lothringen, Saarburg
!!!YOR: 5, S. 1
!!    1939 gedruckt in Kassel
!!!SCT: Q0089
!!!YEM: Copyright 1995, estate of Helmut Schaffrath.
**kern
*ICvox
*Ivox
*M3/8
*k[f#]
*G:
{8d
=1
4g
8b
=2
4g
8cc
=3
4b
8a
=4
4g}
{8d
=5
4g
8b
=6
4a
8cc
=7
4b
8g
=8
4a}
{8cc
=9
4b
8a
=10
8g
8g
8d
=11
4a
8cc
=12
4b}
{8cc
=13
4b
8a
=14
4g
8d
=15
4a
8b
=16
4g}
{8cc
=17
4b
8a
=18
8g
8g
8d
=19
4a
8cc
=20
4b}
{8cc
=21
4b
8a
=22
4g
8d
=23
4a
8b
=24
4g}
==
!!!AGN: Ballade, Mord, Grab, Auferstehen, Geist
!!!ONB: ESAC (Essen Associative Code) Database: BALLADE
!!!AMT: simple triple
!!!AIN: vox
!!!EED: Helmut Schaffrath
!!!EEV: 1.0
*-
